!!!!SEGMENT: pl-wnifc--13846--095_anonim--piesni-polskie-i-ruskie-ludu-galicyjskiego-95-chcialo-sie-zosi-jagodek.krn
!!!kernsource:
!!!cenid: 18xx:3317
!!!COM: Anonim
!!!COM-rismID:
!!!CDT:
!!!CNT:
!!!GTL: Pieśni polskie i ruskie ludu galicyjskiego
!!!OTL: 95. Chciało się Zosi jagodek
!!!PDT: 1833
!!!AGN:
!!!SMS-siglum: PL-Wnifc
!!!SMS-shelfmark: 13846
!!!SMS-shelfwork: 095 G
!!!NIFC-rismSourceID: 1001039024
!!!NIFC-islandoraID:
!!!URL-pdf-islandora:
!!!URL-scan:
!!!ONB-nifc:
!!!OMD: Allegretto
!!!AIN: 1 piano 1 vox
!!!key: B-
**kern	**kern	**dynam	**kern	**text
*part2	*part2	*part2	*part1	*part1
*staff3	*staff2	*	*staff1	*staff1
*>[A,B,B]	*>[A,B,B]	*>[A,B,B]	*>[A,B,B]	*>[A,B,B]
*>A	*>A	*>A	*>A	*>A
*I"FORTEPIAN.	*I"FORTEPIAN.	*	*I"GŁOS.	*
*Ipiano	*Ipiano	*	*Ivox	*
*ICklav	*ICklav	*	*ICvox	*
*IGacmp	*IGacmp	*	*IGsolo	*
*clefF4	*clefG2	*	*clefG2	*
*k[b-e-]	*k[b-e-]	*	*k[b-e-]	*
*B-:	*B-:	*	*B-:	*
*M6/8	*M6/8	*	*M6/8	*
=1-	=1-	=1-	=1-	=1-
*	*^	*	*	*
!	!LO:TX:a:t=E.87.:rj	!	!LO:DY:b=2	!	!
4F/ 4BB-/	8b-/L	8d\L	pp	8b-\	Chcia-
.	8f/	8d\	.	8f/	-ło
8F/ 8BB-/	8b-/J	8d\J	.	8b-\	się
4B-\ 4F\ 4BB-\	4dd/	4dd\ 4f\ 4d\	.	4dd\	Zo-
8B-\ 8F\ 8BB-\	8b-/	8b-\ 8d\	.	8b-\	-si
=2	=2	=2	=2	=2	=2
4A\ 4F\ 4BB-\	4ee-/	4ee-\ 4e-\	.	4ee-\	ja-
8A\ 8F\ 8BB-\	8cc/	8cc\ 8e-\	.	8cc\	-go-
4B-\ 4F\ 4BB-\	4b-/ 4d/	4d\	.	4b-\	-dek
8B-\ 8F\ 8BB-\	8r	8ryy	.	8r	.
!!LO:LB:g=original
=3	=3	=3	=3	=3	=3
*^	*	*	*	*	*
4F/	4F\ 4BB-\	8b-/L	8d\L	.	8b-\	ku-
.	.	8f/	8d\	.	8f/	-pić
8F/	8F\ 8BB-\	8b-/J	8d\J	.	8b-\	ich
4B-\ 4F\ 4BB-\^<	4ryy	4dd/	4dd\ 4f\ 4d\^	.	4dd\	za
8B-\ 8F\ 8BB-\^	8ryy	8b-/ 8d/	8d\	.	8b-\	co
=4	=4	=4	=4	=4	=4	=4
4G/	4G\ 4BB-\^	4ee-/	4ee-\ 4e-\	.	4ee-\	nie
8A/	8A\ 8BB-\	8cc/	8cc\ 8e-\	.	8cc\	mia-
8ryy	4B-\ 4BB-\	4b-/ 4d/	8ryy	.	4b-\	-ła,
4ryy	.	.	4ryy	.	.	.
.	8r	8r	.	.	8r	.
*v	*v	*	*	*	*	*
*	*v	*v	*	*	*
!!LO:LB:g=original
=5!|:	=5!|:	=5!|:	=5!|:	=5!|:
*>B	*>B	*>B	*>B	*>B
4G\ 4E-\	8cc\|L	.	8cc\	Jaś
.	8cc\|	.	8cc\	ich
8G\ 8E-\	(>16cc\L	.	(>16cc\LL	miał
.	16bn\JJ)	.	16bn\JJ)	.
4G\ 4F\ 4D\	4b/	.	4b/	pe-
8G\ 8F\ 8D\	8g/	.	8g/	-łen
=6	=6	=6	=6	=6
(>8G\L 8E-\'	4cc\	.	4cc\	o-
8c\|	.	.	.	.
8G\'J	8ee-\	.	8ee-\	-gró-
8E-\|L	4gg\	.	4gg\	-dek,
8C\|	.	.	.	.
8E-\|J)	8r	.	8r	.
!!LO:LB:g=original
=7	=7	=7	=7	=7
*^	*^	*	*	*
!	!	!LO:S:s=1:note:problem=note-level slur	!	!	!	!
4.F/	4.F\	(<8dd/L	4dd\ 4f\^	.	8dd\	a-
.	.	8ee-/)	.	.	8ee-\	-le
.	.	8cc/J	8cc\ 8e-\	.	8cc\	go
4.F/ 4.FF/	4.ryy	4b-/	4b-\ 4d\^	.	4b-\	pro-
.	.	8dd/	8dd\ 8f\	.	8dd\	-sić
*	*	*v	*v	*	*	*
=8	=8	=8	=8	=8	=8
4F/	4F\ 4FF\	(>8.ee-\L 8.e-\^<	.	(8.ee-\L	nie
.	.	16cc\L)	.	16cc\Jk)	.
8F/	8F\	(>16cc\ 16e-\	.	(16cc\LL	śmia-
.	.	16a\JJ)	.	16a/JJ)	.
4F/	4F\ 4BB-\	4b-\ 4d\	.	4b-\	-ła.
8r	8ryy	8r	.	8r	.
*v	*v	*	*	*	*
=:|!	=:|!	=:|!	=:|!	=:|!
*-	*-	*-	*-	*-
!!!system-decoration: <s1>{(s2,s3)}
!!!RDF**kern: > = above
!!!RDF**kern: < = below
!!!RDF**kern: | = vertical stroke
!!!ENC: Andrzej Kubiczek
!!!END: 2021-11-11
